icons/modern/wrapped-gift.svg

<svg width="32" height="32" viewBox="0 0 32 32" fill="none" xmlns="http://www.w3.org/2000/svg">
<g filter="url(#filter0_i_18_1284)">
<path d="M16.0593 8.04179H24.8578C26.0435 8.03178 27 7.07054 27 5.88902C27 2.50467 22.9547 0.782455 20.5335 3.12547L16.0593 7.46361V8.04179Z" fill="#DE2236"/>
<path d="M16.0593 8.04179H24.8578C26.0435 8.03178 27 7.07054 27 5.88902C27 2.50467 22.9547 0.782455 20.5335 3.12547L16.0593 7.46361V8.04179Z" fill="url(#paint0_linear_18_1284)"/>
</g>
<g filter="url(#filter1_i_18_1284)">
<path d="M16.0593 8.04179H7.26083C6.07515 8.03178 5.11864 7.07054 5.11864 5.88902C5.11864 2.50467 9.16394 0.782455 11.5851 3.12547L16.0593 7.46361V8.04179Z" fill="url(#paint1_linear_18_1284)"/>
<path d="M16.0593 8.04179H7.26083C6.07515 8.03178 5.11864 7.07054 5.11864 5.88902C5.11864 2.50467 9.16394 0.782455 11.5851 3.12547L16.0593 7.46361V8.04179Z" fill="url(#paint2_linear_18_1284)"/>
<path d="M16.0593 8.04179H7.26083C6.07515 8.03178 5.11864 7.07054 5.11864 5.88902C5.11864 2.50467 9.16394 0.782455 11.5851 3.12547L16.0593 7.46361V8.04179Z" fill="url(#paint3_radial_18_1284)"/>
</g>
<path d="M24.8881 30.0418H7.11191C5.94084 30.0418 5 29.1123 5 27.9555V15.0418H27V27.9555C27 29.1025 26.0592 30.0418 24.8881 30.0418Z" fill="url(#paint4_linear_18_1284)"/>
<path d="M24.8881 30.0418H7.11191C5.94084 30.0418 5 29.1123 5 27.9555V15.0418H27V27.9555C27 29.1025 26.0592 30.0418 24.8881 30.0418Z" fill="url(#paint5_linear_18_1284)"/>
<path d="M24.8881 30.0418H7.11191C5.94084 30.0418 5 29.1123 5 27.9555V15.0418H27V27.9555C27 29.1025 26.0592 30.0418 24.8881 30.0418Z" fill="url(#paint6_radial_18_1284)"/>
<path d="M24.8881 30.0418H7.11191C5.94084 30.0418 5 29.1123 5 27.9555V15.0418H27V27.9555C27 29.1025 26.0592 30.0418 24.8881 30.0418Z" fill="url(#paint7_linear_18_1284)"/>
<path d="M24.8881 30.0418H7.11191C5.94084 30.0418 5 29.1123 5 27.9555V15.0418H27V27.9555C27 29.1025 26.0592 30.0418 24.8881 30.0418Z" fill="url(#paint8_linear_18_1284)"/>
<path d="M24.8881 30.0418H7.11191C5.94084 30.0418 5 29.1123 5 27.9555V15.0418H27V27.9555C27 29.1025 26.0592 30.0418 24.8881 30.0418Z" fill="url(#paint9_linear_18_1284)"/>
<path d="M27.6615 8.04181H4.33845C3.5993 8.04181 3 8.64266 3 9.38372V13.6999C3 14.441 3.5993 15.0418 4.33845 15.0418H27.6615C28.4007 15.0418 29 14.441 29 13.6999V9.38372C29 8.64266 28.4007 8.04181 27.6615 8.04181Z" fill="url(#paint10_linear_18_1284)"/>
<path d="M27.6615 8.04181H4.33845C3.5993 8.04181 3 8.64266 3 9.38372V13.6999C3 14.441 3.5993 15.0418 4.33845 15.0418H27.6615C28.4007 15.0418 29 14.441 29 13.6999V9.38372C29 8.64266 28.4007 8.04181 27.6615 8.04181Z" fill="url(#paint11_linear_18_1284)"/>
<path d="M27.6615 8.04181H4.33845C3.5993 8.04181 3 8.64266 3 9.38372V13.6999C3 14.441 3.5993 15.0418 4.33845 15.0418H27.6615C28.4007 15.0418 29 14.441 29 13.6999V9.38372C29 8.64266 28.4007 8.04181 27.6615 8.04181Z" fill="url(#paint12_linear_18_1284)"/>
<path d="M27.6615 8.04181H4.33845C3.5993 8.04181 3 8.64266 3 9.38372V13.6999C3 14.441 3.5993 15.0418 4.33845 15.0418H27.6615C28.4007 15.0418 29 14.441 29 13.6999V9.38372C29 8.64266 28.4007 8.04181 27.6615 8.04181Z" fill="url(#paint13_radial_18_1284)"/>
<path d="M27.6615 8.04181H4.33845C3.5993 8.04181 3 8.64266 3 9.38372V13.6999C3 14.441 3.5993 15.0418 4.33845 15.0418H27.6615C28.4007 15.0418 29 14.441 29 13.6999V9.38372C29 8.64266 28.4007 8.04181 27.6615 8.04181Z" fill="url(#paint14_linear_18_1284)"/>
<path d="M27.6615 8.04181H4.33845C3.5993 8.04181 3 8.64266 3 9.38372V13.6999C3 14.441 3.5993 15.0418 4.33845 15.0418H27.6615C28.4007 15.0418 29 14.441 29 13.6999V9.38372C29 8.64266 28.4007 8.04181 27.6615 8.04181Z" fill="url(#paint15_radial_18_1284)"/>
<g filter="url(#filter2_ii_18_1284)">
<path d="M16.0049 3.04181C14.3443 3.04181 13 4.41093 13 6.10221V30.0418H18.9999V6.10221C19.0098 4.41093 17.6655 3.04181 16.0049 3.04181Z" fill="url(#paint16_linear_18_1284)"/>
<path d="M16.0049 3.04181C14.3443 3.04181 13 4.41093 13 6.10221V30.0418H18.9999V6.10221C19.0098 4.41093 17.6655 3.04181 16.0049 3.04181Z" fill="url(#paint17_linear_18_1284)"/>
</g>
<g filter="url(#filter3_f_18_1284)">
<path d="M24.0118 3.04181C24.7931 3.25014 26.3118 4.16056 26.1368 6.13556" stroke="#FB5157" stroke-width="0.5" stroke-linecap="round"/>
</g>
<g filter="url(#filter4_f_18_1284)">
<path d="M9.66821 2.87152C9.82301 2.85862 10.2797 2.96439 10.8679 3.49071C11.4561 4.01703 12.2998 4.8968 12.6481 5.2709" stroke="#FB5157" stroke-width="0.5" stroke-linecap="round"/>
</g>
<defs>
<filter id="filter0_i_18_1284" x="16.0593" y="2.04623" width="11.2407" height="6.29556" filterUnits="userSpaceOnUse" color-interpolation-filters="sRGB">
<feFlood flood-opacity="0" result="BackgroundImageFix"/>
<feBlend mode="normal" in="SourceGraphic" in2="BackgroundImageFix" result="shape"/>
<feColorMatrix in="SourceAlpha" type="matrix" values="0 0 0 0 0 0 0 0 0 0 0 0 0 0 0 0 0 0 127 0" result="hardAlpha"/>
<feOffset dx="0.3" dy="0.3"/>
<feGaussianBlur stdDeviation="0.375"/>
<feComposite in2="hardAlpha" operator="arithmetic" k2="-1" k3="1"/>
<feColorMatrix type="matrix" values="0 0 0 0 0.698039 0 0 0 0 0.235294 0 0 0 0 0.243137 0 0 0 1 0"/>
<feBlend mode="normal" in2="shape" result="effect1_innerShadow_18_1284"/>
</filter>
<filter id="filter1_i_18_1284" x="5.11865" y="1.74623" width="11.4407" height="6.29556" filterUnits="userSpaceOnUse" color-interpolation-filters="sRGB">
<feFlood flood-opacity="0" result="BackgroundImageFix"/>
<feBlend mode="normal" in="SourceGraphic" in2="BackgroundImageFix" result="shape"/>
<feColorMatrix in="SourceAlpha" type="matrix" values="0 0 0 0 0 0 0 0 0 0 0 0 0 0 0 0 0 0 127 0" result="hardAlpha"/>
<feOffset dx="0.5" dy="-0.3"/>
<feGaussianBlur stdDeviation="0.375"/>
<feComposite in2="hardAlpha" operator="arithmetic" k2="-1" k3="1"/>
<feColorMatrix type="matrix" values="0 0 0 0 0.698039 0 0 0 0 0.235294 0 0 0 0 0.243137 0 0 0 1 0"/>
<feBlend mode="normal" in2="shape" result="effect1_innerShadow_18_1284"/>
</filter>
<filter id="filter2_ii_18_1284" x="12.8" y="3.04181" width="6.4" height="27" filterUnits="userSpaceOnUse" color-interpolation-filters="sRGB">
<feFlood flood-opacity="0" result="BackgroundImageFix"/>
<feBlend mode="normal" in="SourceGraphic" in2="BackgroundImageFix" result="shape"/>
<feColorMatrix in="SourceAlpha" type="matrix" values="0 0 0 0 0 0 0 0 0 0 0 0 0 0 0 0 0 0 127 0" result="hardAlpha"/>
<feOffset dx="0.2"/>
<feGaussianBlur stdDeviation="0.1"/>
<feComposite in2="hardAlpha" operator="arithmetic" k2="-1" k3="1"/>
<feColorMatrix type="matrix" values="0 0 0 0 0.729412 0 0 0 0 0.101961 0 0 0 0 0.152941 0 0 0 1 0"/>
<feBlend mode="normal" in2="shape" result="effect1_innerShadow_18_1284"/>
<feColorMatrix in="SourceAlpha" type="matrix" values="0 0 0 0 0 0 0 0 0 0 0 0 0 0 0 0 0 0 127 0" result="hardAlpha"/>
<feOffset dx="-0.2"/>
<feGaussianBlur stdDeviation="0.1"/>
<feComposite in2="hardAlpha" operator="arithmetic" k2="-1" k3="1"/>
<feColorMatrix type="matrix" values="0 0 0 0 0.894118 0 0 0 0 0.301961 0 0 0 0 0.341176 0 0 0 1 0"/>
<feBlend mode="normal" in2="effect1_innerShadow_18_1284" result="effect2_innerShadow_18_1284"/>
</filter>
<filter id="filter3_f_18_1284" x="22.7618" y="1.79175" width="4.63898" height="5.59383" filterUnits="userSpaceOnUse" color-interpolation-filters="sRGB">
<feFlood flood-opacity="0" result="BackgroundImageFix"/>
<feBlend mode="normal" in="SourceGraphic" in2="BackgroundImageFix" result="shape"/>
<feGaussianBlur stdDeviation="0.5" result="effect1_foregroundBlur_18_1284"/>
</filter>
<filter id="filter4_f_18_1284" x="8.41821" y="1.62053" width="5.47986" height="4.90036" filterUnits="userSpaceOnUse" color-interpolation-filters="sRGB">
<feFlood flood-opacity="0" result="BackgroundImageFix"/>
<feBlend mode="normal" in="SourceGraphic" in2="BackgroundImageFix" result="shape"/>
<feGaussianBlur stdDeviation="0.5" result="effect1_foregroundBlur_18_1284"/>
</filter>
<linearGradient id="paint0_linear_18_1284" x1="22.71" y1="8.52167" x2="22.71" y2="6.66408" gradientUnits="userSpaceOnUse">
<stop stop-color="#CE280A"/>
<stop offset="1" stop-color="#CE280A" stop-opacity="0"/>
</linearGradient>
<linearGradient id="paint1_linear_18_1284" x1="12.3385" y1="3.33591" x2="10.589" y2="8.04179" gradientUnits="userSpaceOnUse">
<stop stop-color="#DF2332"/>
<stop offset="1" stop-color="#D9213B"/>
</linearGradient>
<linearGradient id="paint2_linear_18_1284" x1="9.40867" y1="8.52167" x2="9.40867" y2="6.66408" gradientUnits="userSpaceOnUse">
<stop stop-color="#CE280A"/>
<stop offset="1" stop-color="#CE280A" stop-opacity="0"/>
</linearGradient>
<radialGradient id="paint3_radial_18_1284" cx="0" cy="0" r="1" gradientUnits="userSpaceOnUse" gradientTransform="translate(13.5382 8.32817) rotate(-173.603) scale(2.57018 6.76007)">
<stop offset="0.150943" stop-color="#BD1123"/>
<stop offset="1" stop-color="#BD1123" stop-opacity="0"/>
</radialGradient>
<linearGradient id="paint4_linear_18_1284" x1="5" y1="24.6043" x2="27" y2="24.6043" gradientUnits="userSpaceOnUse">
<stop stop-color="#F1A738"/>
<stop offset="1" stop-color="#FAD42C"/>
</linearGradient>
<linearGradient id="paint5_linear_18_1284" x1="16" y1="13.0418" x2="16" y2="16.2918" gradientUnits="userSpaceOnUse">
<stop stop-color="#C97525"/>
<stop offset="1" stop-color="#C97525" stop-opacity="0"/>
</linearGradient>
<radialGradient id="paint6_radial_18_1284" cx="0" cy="0" r="1" gradientUnits="userSpaceOnUse" gradientTransform="translate(13.6368 21.3543) rotate(-180) scale(2.375 18.6875)">
<stop stop-color="#C87C28"/>
<stop offset="1" stop-color="#C87C28" stop-opacity="0"/>
</radialGradient>
<linearGradient id="paint7_linear_18_1284" x1="4.44933" y1="22.5418" x2="7.69933" y2="22.5418" gradientUnits="userSpaceOnUse">
<stop stop-color="#C2773F"/>
<stop offset="1" stop-color="#C2773F" stop-opacity="0"/>
</linearGradient>
<linearGradient id="paint8_linear_18_1284" x1="16.513" y1="30.6605" x2="16.513" y2="28.9594" gradientUnits="userSpaceOnUse">
<stop stop-color="#E68370"/>
<stop offset="1" stop-color="#E68370" stop-opacity="0"/>
</linearGradient>
<linearGradient id="paint9_linear_18_1284" x1="27.6993" y1="23.8543" x2="25.0118" y2="23.8543" gradientUnits="userSpaceOnUse">
<stop stop-color="#FFF733"/>
<stop offset="1" stop-color="#FFF733" stop-opacity="0"/>
</linearGradient>
<linearGradient id="paint10_linear_18_1284" x1="29" y1="12.0288" x2="3.00017" y2="11.9617" gradientUnits="userSpaceOnUse">
<stop stop-color="#F6D729"/>
<stop offset="1" stop-color="#F39B3A"/>
</linearGradient>
<linearGradient id="paint11_linear_18_1284" x1="29" y1="11.5418" x2="27.2726" y2="11.5418" gradientUnits="userSpaceOnUse">
<stop stop-color="#FFF850"/>
<stop offset="1" stop-color="#FFF850" stop-opacity="0"/>
</linearGradient>
<linearGradient id="paint12_linear_18_1284" x1="16" y1="15.3605" x2="16" y2="14.185" gradientUnits="userSpaceOnUse">
<stop stop-color="#E8AF21"/>
<stop offset="1" stop-color="#E8AF21" stop-opacity="0"/>
</linearGradient>
<radialGradient id="paint13_radial_18_1284" cx="0" cy="0" r="1" gradientUnits="userSpaceOnUse" gradientTransform="translate(6.15282 15.7659) rotate(-90) scale(1.82412 13.1049)">
<stop stop-color="#DE7550"/>
<stop offset="1" stop-color="#DE7550" stop-opacity="0"/>
</radialGradient>
<linearGradient id="paint14_linear_18_1284" x1="2.71922" y1="11.9646" x2="5.03107" y2="11.9646" gradientUnits="userSpaceOnUse">
<stop stop-color="#BE7841"/>
<stop offset="1" stop-color="#BE7841" stop-opacity="0"/>
</linearGradient>
<radialGradient id="paint15_radial_18_1284" cx="0" cy="0" r="1" gradientUnits="userSpaceOnUse" gradientTransform="translate(13.9493 12.5731) rotate(180) scale(2.53125 17.5312)">
<stop offset="0.188888" stop-color="#C57E10"/>
<stop offset="1" stop-color="#C57E10" stop-opacity="0"/>
</radialGradient>
<linearGradient id="paint16_linear_18_1284" x1="16.0078" y1="3.04362" x2="16.0078" y2="30.0406" gradientUnits="userSpaceOnUse">
<stop stop-color="#D12136"/>
<stop offset="1" stop-color="#B6246E"/>
</linearGradient>
<linearGradient id="paint17_linear_18_1284" x1="16" y1="30.297" x2="16" y2="28.8527" gradientUnits="userSpaceOnUse">
<stop stop-color="#B3368C"/>
<stop offset="1" stop-color="#B3368C" stop-opacity="0"/>
</linearGradient>
</defs>
</svg>

<svg width="32" height="32" fill="none" xmlns="http://www.w3.org/2000/svg"><g filter="url(#a)"><path d="M16.06 8.042h8.798A2.157 2.157 0 0 0 27 5.889c0-3.384-4.045-5.107-6.466-2.764l-4.475 4.339v.578Z" fill="#DE2236"/><path d="M16.06 8.042h8.798A2.157 2.157 0 0 0 27 5.889c0-3.384-4.045-5.107-6.466-2.764l-4.475 4.339v.578Z" fill="url(#b)"/></g><g filter="url(#c)"><path d="M16.06 8.042h-8.8A2.157 2.157 0 0 1 5.12 5.889c0-3.384 4.045-5.107 6.466-2.764l4.474 4.339v.578Z" fill="url(#d)"/><path d="M16.06 8.042h-8.8A2.157 2.157 0 0 1 5.12 5.889c0-3.384 4.045-5.107 6.466-2.764l4.474 4.339v.578Z" fill="url(#e)"/><path d="M16.06 8.042h-8.8A2.157 2.157 0 0 1 5.12 5.889c0-3.384 4.045-5.107 6.466-2.764l4.474 4.339v.578Z" fill="url(#f)"/></g><path d="M24.888 30.042H7.112A2.093 2.093 0 0 1 5 27.955V15.043h22v12.914c0 1.146-.94 2.086-2.112 2.086Z" fill="url(#g)"/><path d="M24.888 30.042H7.112A2.093 2.093 0 0 1 5 27.955V15.043h22v12.914c0 1.146-.94 2.086-2.112 2.086Z" fill="url(#h)"/><path d="M24.888 30.042H7.112A2.093 2.093 0 0 1 5 27.955V15.043h22v12.914c0 1.146-.94 2.086-2.112 2.086Z" fill="url(#i)"/><path d="M24.888 30.042H7.112A2.093 2.093 0 0 1 5 27.955V15.043h22v12.914c0 1.146-.94 2.086-2.112 2.086Z" fill="url(#j)"/><path d="M24.888 30.042H7.112A2.093 2.093 0 0 1 5 27.955V15.043h22v12.914c0 1.146-.94 2.086-2.112 2.086Z" fill="url(#k)"/><path d="M24.888 30.042H7.112A2.093 2.093 0 0 1 5 27.955V15.043h22v12.914c0 1.146-.94 2.086-2.112 2.086Z" fill="url(#l)"/><path d="M27.662 8.042H4.337C3.6 8.042 3 8.642 3 9.384V13.7c0 .741.6 1.342 1.338 1.342h23.324C28.4 15.042 29 14.44 29 13.7V9.384c0-.741-.6-1.342-1.338-1.342Z" fill="url(#m)"/><path d="M27.662 8.042H4.337C3.6 8.042 3 8.642 3 9.384V13.7c0 .741.6 1.342 1.338 1.342h23.324C28.4 15.042 29 14.44 29 13.7V9.384c0-.741-.6-1.342-1.338-1.342Z" fill="url(#n)"/><path d="M27.662 8.042H4.337C3.6 8.042 3 8.642 3 9.384V13.7c0 .741.6 1.342 1.338 1.342h23.324C28.4 15.042 29 14.44 29 13.7V9.384c0-.741-.6-1.342-1.338-1.342Z" fill="url(#o)"/><path d="M27.662 8.042H4.337C3.6 8.042 3 8.642 3 9.384V13.7c0 .741.6 1.342 1.338 1.342h23.324C28.4 15.042 29 14.44 29 13.7V9.384c0-.741-.6-1.342-1.338-1.342Z" fill="url(#p)"/><path d="M27.662 8.042H4.337C3.6 8.042 3 8.642 3 9.384V13.7c0 .741.6 1.342 1.338 1.342h23.324C28.4 15.042 29 14.44 29 13.7V9.384c0-.741-.6-1.342-1.338-1.342Z" fill="url(#q)"/><path d="M27.662 8.042H4.337C3.6 8.042 3 8.642 3 9.384V13.7c0 .741.6 1.342 1.338 1.342h23.324C28.4 15.042 29 14.44 29 13.7V9.384c0-.741-.6-1.342-1.338-1.342Z" fill="url(#r)"/><g filter="url(#s)"><path d="M16.005 3.042C14.345 3.042 13 4.41 13 6.102v23.94h6V6.102c.01-1.691-1.334-3.06-2.995-3.06Z" fill="url(#t)"/><path d="M16.005 3.042C14.345 3.042 13 4.41 13 6.102v23.94h6V6.102c.01-1.691-1.334-3.06-2.995-3.06Z" fill="url(#u)"/></g><g filter="url(#v)"><path d="M24.012 3.042c.781.208 2.3 1.119 2.125 3.094" stroke="#FB5157" stroke-width=".5" stroke-linecap="round"/></g><g filter="url(#w)"><path d="M9.668 2.872c.155-.013.612.092 1.2.619.588.526 1.432 1.406 1.78 1.78" stroke="#FB5157" stroke-width=".5" stroke-linecap="round"/></g><defs><linearGradient id="b" x1="22.71" y1="8.522" x2="22.71" y2="6.664" gradientUnits="userSpaceOnUse"><stop stop-color="#CE280A"/><stop offset="1" stop-color="#CE280A" stop-opacity="0"/></linearGradient><linearGradient id="d" x1="12.338" y1="3.336" x2="10.589" y2="8.042" gradientUnits="userSpaceOnUse"><stop stop-color="#DF2332"/><stop offset="1" stop-color="#D9213B"/></linearGradient><linearGradient id="e" x1="9.409" y1="8.522" x2="9.409" y2="6.664" gradientUnits="userSpaceOnUse"><stop stop-color="#CE280A"/><stop offset="1" stop-color="#CE280A" stop-opacity="0"/></linearGradient><linearGradient id="g" x1="5" y1="24.604" x2="27" y2="24.604" gradientUnits="userSpaceOnUse"><stop stop-color="#F1A738"/><stop offset="1" stop-color="#FAD42C"/></linearGradient><linearGradient id="h" x1="16" y1="13.042" x2="16" y2="16.292" gradientUnits="userSpaceOnUse"><stop stop-color="#C97525"/><stop offset="1" stop-color="#C97525" stop-opacity="0"/></linearGradient><linearGradient id="j" x1="4.449" y1="22.542" x2="7.699" y2="22.542" gradientUnits="userSpaceOnUse"><stop stop-color="#C2773F"/><stop offset="1" stop-color="#C2773F" stop-opacity="0"/></linearGradient><linearGradient id="k" x1="16.513" y1="30.66" x2="16.513" y2="28.959" gradientUnits="userSpaceOnUse"><stop stop-color="#E68370"/><stop offset="1" stop-color="#E68370" stop-opacity="0"/></linearGradient><linearGradient id="l" x1="27.699" y1="23.854" x2="25.012" y2="23.854" gradientUnits="userSpaceOnUse"><stop stop-color="#FFF733"/><stop offset="1" stop-color="#FFF733" stop-opacity="0"/></linearGradient><linearGradient id="m" x1="29" y1="12.029" x2="3" y2="11.962" gradientUnits="userSpaceOnUse"><stop stop-color="#F6D729"/><stop offset="1" stop-color="#F39B3A"/></linearGradient><linearGradient id="n" x1="29" y1="11.542" x2="27.273" y2="11.542" gradientUnits="userSpaceOnUse"><stop stop-color="#FFF850"/><stop offset="1" stop-color="#FFF850" stop-opacity="0"/></linearGradient><linearGradient id="o" x1="16" y1="15.361" x2="16" y2="14.185" gradientUnits="userSpaceOnUse"><stop stop-color="#E8AF21"/><stop offset="1" stop-color="#E8AF21" stop-opacity="0"/></linearGradient><linearGradient id="q" x1="2.719" y1="11.965" x2="5.031" y2="11.965" gradientUnits="userSpaceOnUse"><stop stop-color="#BE7841"/><stop offset="1" stop-color="#BE7841" stop-opacity="0"/></linearGradient><linearGradient id="t" x1="16.008" y1="3.044" x2="16.008" y2="30.041" gradientUnits="userSpaceOnUse"><stop stop-color="#D12136"/><stop offset="1" stop-color="#B6246E"/></linearGradient><linearGradient id="u" x1="16" y1="30.297" x2="16" y2="28.853" gradientUnits="userSpaceOnUse"><stop stop-color="#B3368C"/><stop offset="1" stop-color="#B3368C" stop-opacity="0"/></linearGradient><filter id="a" x="16.059" y="2.046" width="11.241" height="6.296" filterUnits="userSpaceOnUse" color-interpolation-filters="sRGB"><feFlood flood-opacity="0" result="BackgroundImageFix"/><feBlend in="SourceGraphic" in2="BackgroundImageFix" result="shape"/><feColorMatrix in="SourceAlpha" values="0 0 0 0 0 0 0 0 0 0 0 0 0 0 0 0 0 0 127 0" result="hardAlpha"/><feOffset dx=".3" dy=".3"/><feGaussianBlur stdDeviation=".375"/><feComposite in2="hardAlpha" operator="arithmetic" k2="-1" k3="1"/><feColorMatrix values="0 0 0 0 0.698039 0 0 0 0 0.235294 0 0 0 0 0.243137 0 0 0 1 0"/><feBlend in2="shape" result="effect1_innerShadow_18_1284"/></filter><filter id="c" x="5.119" y="1.746" width="11.441" height="6.296" filterUnits="userSpaceOnUse" color-interpolation-filters="sRGB"><feFlood flood-opacity="0" result="BackgroundImageFix"/><feBlend in="SourceGraphic" in2="BackgroundImageFix" result="shape"/><feColorMatrix in="SourceAlpha" values="0 0 0 0 0 0 0 0 0 0 0 0 0 0 0 0 0 0 127 0" result="hardAlpha"/><feOffset dx=".5" dy="-.3"/><feGaussianBlur stdDeviation=".375"/><feComposite in2="hardAlpha" operator="arithmetic" k2="-1" k3="1"/><feColorMatrix values="0 0 0 0 0.698039 0 0 0 0 0.235294 0 0 0 0 0.243137 0 0 0 1 0"/><feBlend in2="shape" result="effect1_innerShadow_18_1284"/></filter><filter id="s" x="12.8" y="3.042" width="6.4" height="27" filterUnits="userSpaceOnUse" color-interpolation-filters="sRGB"><feFlood flood-opacity="0" result="BackgroundImageFix"/><feBlend in="SourceGraphic" in2="BackgroundImageFix" result="shape"/><feColorMatrix in="SourceAlpha" values="0 0 0 0 0 0 0 0 0 0 0 0 0 0 0 0 0 0 127 0" result="hardAlpha"/><feOffset dx=".2"/><feGaussianBlur stdDeviation=".1"/><feComposite in2="hardAlpha" operator="arithmetic" k2="-1" k3="1"/><feColorMatrix values="0 0 0 0 0.729412 0 0 0 0 0.101961 0 0 0 0 0.152941 0 0 0 1 0"/><feBlend in2="shape" result="effect1_innerShadow_18_1284"/><feColorMatrix in="SourceAlpha" values="0 0 0 0 0 0 0 0 0 0 0 0 0 0 0 0 0 0 127 0" result="hardAlpha"/><feOffset dx="-.2"/><feGaussianBlur stdDeviation=".1"/><feComposite in2="hardAlpha" operator="arithmetic" k2="-1" k3="1"/><feColorMatrix values="0 0 0 0 0.894118 0 0 0 0 0.301961 0 0 0 0 0.341176 0 0 0 1 0"/><feBlend in2="effect1_innerShadow_18_1284" result="effect2_innerShadow_18_1284"/></filter><filter id="v" x="22.762" y="1.792" width="4.639" height="5.594" filterUnits="userSpaceOnUse" color-interpolation-filters="sRGB"><feFlood flood-opacity="0" result="BackgroundImageFix"/><feBlend in="SourceGraphic" in2="BackgroundImageFix" result="shape"/><feGaussianBlur stdDeviation=".5" result="effect1_foregroundBlur_18_1284"/></filter><filter id="w" x="8.418" y="1.621" width="5.48" height="4.9" filterUnits="userSpaceOnUse" color-interpolation-filters="sRGB"><feFlood flood-opacity="0" result="BackgroundImageFix"/><feBlend in="SourceGraphic" in2="BackgroundImageFix" result="shape"/><feGaussianBlur stdDeviation=".5" result="effect1_foregroundBlur_18_1284"/></filter><radialGradient id="f" cx="0" cy="0" r="1" gradientUnits="userSpaceOnUse" gradientTransform="matrix(-2.55418 -.28636 .75319 -6.71798 13.538 8.328)"><stop offset=".151" stop-color="#BD1123"/><stop offset="1" stop-color="#BD1123" stop-opacity="0"/></radialGradient><radialGradient id="i" cx="0" cy="0" r="1" gradientUnits="userSpaceOnUse" gradientTransform="matrix(-2.375 0 0 -18.6875 13.637 21.354)"><stop stop-color="#C87C28"/><stop offset="1" stop-color="#C87C28" stop-opacity="0"/></radialGradient><radialGradient id="p" cx="0" cy="0" r="1" gradientUnits="userSpaceOnUse" gradientTransform="matrix(0 -1.82412 13.1049 0 6.153 15.766)"><stop stop-color="#DE7550"/><stop offset="1" stop-color="#DE7550" stop-opacity="0"/></radialGradient><radialGradient id="r" cx="0" cy="0" r="1" gradientUnits="userSpaceOnUse" gradientTransform="matrix(-2.53125 0 0 -17.5312 13.95 12.573)"><stop offset=".189" stop-color="#C57E10"/><stop offset="1" stop-color="#C57E10" stop-opacity="0"/></radialGradient></defs></svg>
